X: 287
T:The Laird o' Thrums
C:J. Scott Skinner
M:C
L:1/8
Q:1/4=110
K:A
g|(3 agf   (3 efg   ({g}a2)     (e>d) |  (c<e)    (A>a)     (c>B)     (B>g) |
  (3.a.g.f (3.e.f.g ({g}a2)     (e>c) |  (d>f)    (B>e) ({cd}c>A)     (A>g) |
  (3.a.g.f (3.e.f.g ({g}a2)     (e>d) |  (c<e)    (A>a) ({cd}c>B)     (B>g) |
  (3.a.g.f (3.g.f.e  (3.f.e.^d  (e>c) |  (d<f)    (B>e) ({cd}c<)A      A   ||
c|   f2      (c>f)     (A>f)    (c>f) |(3.c.f.g (3.a.g.f  (3.c'.f.g (3.a.g.f|
({^d}e2)     (B>e)     (G>e)    (B>e) |(3.B.e.f (3.g.f.e  (3.b.e.f  (3.g.f.e|
  {g}a2      (e>a)     (c>e)    (A>g) |(3.a.g.f (3.g.f.e  (3.f.e.d  (3.e.d.c|
  (3.d.e.f (3.B.c.d  (3.c.d.e (3.A.B.c|(3.d.e.f (3.e.f.g ({g}a2-)      a   |]

This pipe tune has one part centred on D and the other three on A:

